X:1
T:Title
%%score { ( 1 3 ) | 2 }
L:1/8
M:6/4
K:Ab
V:1 treble nm="Grand Piano"
V:3 treble 
V:2 bass 
V:1
 z6[Q:1/4=156] [CE]6 | [Ec]2 [CEA]2 [A,CE]2 [CA]2 [EG]2 [DF]2 | [CE]6 [CE]6 | %3
 [DF]2 [EG]2 [EA]2 [=DB]2 [FA]2 [DF]2 |[M:3/4] E6 | E6 | %6
[M:6/4] [Ec]2 [CA]2 [CE]2 [CA]2 [EG]2 [DF]2 | [CE]6 [CE]6 | [DF]2 [EG]2 [EA]2 B2 F2 G2 | %9
[M:3/4] [CA]6 | E6 |[M:6/4] B2 c2 B2 d2 c2 B2 | c6 c6 | [=Ec]2 [EG]2 [GB]2 [FA]2 [CF]2 [=DB]2 | %14
[M:3/4] B6 | E6 |[M:6/4] [CA]2 [CE]2 [EA]2 [FA]2 [EG]2 [DF]2 | [CE]6 [CE]6 | %18
 [DF]2 [DG]2 A2 B2 F2 G2 |[M:3/4] [CA]6 |] %20
V:2
 z6 [A,,A,]6 | [A,,A,]2 A,,2 A,,2 [A,,E,]2 [A,,A,]2 [A,,A,]2 | [A,,A,]6 [A,,A,]6 | %3
 [D,A,]2 [D,B,]2 [C,E,]2 [B,,F,]2 [B,,B,]2 [B,,A,]2 |[M:3/4] [E,G,]6 | [E,G,]6 | %6
[M:6/4] [A,,A,]2 [A,,E,]2 [A,,A,]2 [A,,E,]2 [A,,A,]2 [A,,A,]2 | [A,,A,]6 [A,,A,]6 | %8
 [D,A,]2 [D,B,]2 [C,A,]2 [D,F,D]2 [D,B,D]2 [E,B,D]2 |[M:3/4] [A,,A,]6 | [E,G,]6 | %11
[M:6/4] [E,G,E]2 [E,A,E]2 [E,G,E]2 [E,B,E]2 [E,A,E]2 [E,G,E]2 | [A,E]6 [F,A,F]6 | %13
 [C,G,]2 [C,C]2 [C,C]2 [F,C]2 [F,A,]2 [B,,A,]2 |[M:3/4] [E,G,E]6 | [E,G,]6 | %16
[M:6/4] [A,,A,]2 [A,,A,]2 [C,A,]2 [D,A,]2 [D,A,]2 [D,A,]2 | [A,,A,]6 [A,,A,]6 | %18
 [D,A,]2 [B,,B,]2 [F,A,C]2 [D,F,D]2 [D,B,D]2 [E,B,D]2 |[M:3/4] [A,,A,]6 |] %20
V:3
 x12 | x12 | x12 | x12 |[M:3/4] x6 | x6 |[M:6/4] x12 | x12 | x12 |[M:3/4] x6 | x6 |[M:6/4] x12 | %12
 x12 | x12 |[M:3/4] x6 | z2 z2 D2 |[M:6/4] x12 | x12 | x12 |[M:3/4] x6 |] %20

